X: 28138
T: Mrs Dorgan Lee
R: reel
M: 4/4
K: Emajor
|(fg) (3ggg bgfg egfg {g}fece|Be (3eee {g}fece|{A}eagf e2|
(fg) (3ggg bgfg egfg {g}fece|Be (3eee {g}fece|{A}eagf e2|
(e|c)e (3eee {g}fece|af (3fff ecBA|ce (3eee {g}fece|{A}eagf e2 e|
ce (3eee {g}fece|af (3fff ecBA|ce (3eee {g}fece|{A}eagf e3|

